X: 1
T: Brid Harper's
M: 4/4
L: 1/8
R: reel
K: C
EF|:Gc c/c/c AcGc|ecgc egce|fedc BGAB|cdea g2 EF|
|GcBc AcGc|ecgc (3efg ce|fedc BGAB|1 dcBd cAEF:|2 dcBd cAGE :|
|:CDEC A,CG,A,|CEGc AGEG|cAGE AFDC|B,CDE ~F3D|
|CDEC A,CG,A,|CEGc AGEG|cAGE AFDC|1 B,CDB, C2 G,A,B, :|2 B,CDB, CDEF ||
